X:352
T:You never saw her equal
T:The limestone rock
R:Reel
D:Chieftains 1.
B:O'Neill's 1233
S:O'Neill's 1233
Z:Transcription:Trish O'Neil, minor arr., chords:Mike Long
M:C|
L:1/8
K:G
Bc|\
"G"dBGB (3(ABA) GB|"G"dBGB "D"A2Bc|"G"dBGB (3(ABA) GB|"C"cABG "D"A2Bc|\
"G"dBGB (3(ABA) GB|
"G"dBGB "D"A2Bd|"C"gfga bagf|"C"gedB "D"A2|]\
Bd|\
"Em"(3(efe) de gedg|"Em"(3(efe) dB "D"A2Bd|
"Em"(3(efe) de gedB|"C"cABG "D"A2Bd|\
"Em"(3(efe) de gedg|"Em"(3(efe) dB "D"A2Bd|"G"(3(efg) fa gedB|"C"cABG "D"A2|]
